X:53
T:Worsbro Hornpipe. JBu.53
T:Worsbro(ugh) Hornpipe. JBu.53
T:Gooseberry Hornpipe,aka. JBu.53
O:England,South Yorkshire
S:Joshua Burnett’s MS,c1835,S.Yorkshire
M:C
L:1/8
Q:1/2=90
R:.hornpipe
N:Worsbrough, south of Barnsley, S.Yorks
Z:vmp.R.Greig.2011
K:D
(3AB/c/|dcdA FDFA|Bcde dcBA|dedc BAGF|E2e2e2AB/c/|
dcdA FDFA|gfge dcdA|BcdB cgec|d2d2d2:|
|:fg|afdf ecAc|dcdB AFDF|GFGA BAGF|E2e2e2de|
fdfd AFAF|gfge dcdA|BcdB cgec|d2d2d2:|

